rospo-icon-theme-classic-common/22x22/apps/pingus-icon.svg

<svg height="22" viewBox="0 0 22 22" width="22" xmlns="http://www.w3.org/2000/svg"><circle cx="11" cy="11.5" opacity=".2" r="10"/><circle cx="11" cy="11" fill="#4f4f4f" r="10"/><path d="m11 1a10 10 0 0 0 -10 10 10 10 0 0 0  .01075.291 10 10 0 0 1 9.98925-9.791 10 10 0 0 1 9.9895 9.709 10 10 0 0 0  .0105-.209 10 10 0 0 0 -10-10z" fill="#fff" opacity=".1"/><path d="m7 10.5a4 3.7997427 0 0 0 -3.8554688 2.803563c-.0908084.200639-.1445312.434521-.1445312.715425 0 .04303.00678.08469.00781.127519a4 3.7997427 0 0 0 -.00781.153775 4 3.7997427 0 0 0  .2783203 1.391466c.9117177 2.767061 4.0187497 4.808252 7.7216797 4.808252 3.724139 0 6.844828-2.064808 7.736328-4.856071a4 3.7997427 0 0 0  .263672-1.343647 4 3.7997427 0 0 0 -.006836-.177216c.000688-.034998.006836-.068948.006836-.104078 0-.272259-.05119-.499957-.136719-.696672a4 3.7997427 0 0 0 -3.863281-2.822316 4 3.7997427 0 0 0 -3.955078 3.261135c-.004195.001735-.044922.017815-.044922.017815s-.04073-.01608-.04492-.01782a4 3.7997427 0 0 0 -3.95508-3.26113z" opacity=".2"/><path d="m7 10a4 3.7997427 0 0 0 -3.8554688 2.803563c-.0908084.200639-.1445312.434521-.1445312.715425 0 .04303.00678.08469.00781.127519a4 3.7997427 0 0 0 -.00781.153775 4 3.7997427 0 0 0  .2783203 1.391466c.9117177 2.767061 4.0187497 4.808252 7.7216797 4.808252 3.724139 0 6.844828-2.064808 7.736328-4.856071a4 3.7997427 0 0 0  .263672-1.343647 4 3.7997427 0 0 0 -.006836-.177216c.000688-.034998.006836-.068948.006836-.104078 0-.272259-.05119-.499957-.136719-.696672a4 3.7997427 0 0 0 -3.863281-2.822316 4 3.7997427 0 0 0 -3.955078 3.261135c-.004195.001735-.044922.017815-.044922.017815s-.04073-.01608-.04492-.01782a4 3.7997427 0 0 0 -3.95508-3.26113z" fill="#fff"/><circle cx="8" cy="14" fill="#3f3f3f" r="1"/><circle cx="14" cy="14" fill="#3f3f3f" r="1"/><path d="m20.779291 31.72315h4 4l-2 3.464101-2 3.464102-2-3.464102z" fill="#e31b1b" opacity=".767" transform="matrix(.5 0 0 .4330127 -1.389646 2.263473)"/></svg>

<svg xmlns="http://www.w3.org/2000/svg" width="22" height="22" version="1.1" viewBox="0 0 22 22">
 <circle style="opacity:0.2" cx="11" cy="11.5" r="10"/>
 <circle style="fill:#4f4f4f" cx="11" cy="11" r="10"/>
 <path style="opacity:0.1;fill:#ffffff" d="M 11,1 A 10,10 0 0 0 1,11 10,10 0 0 0 1.01075,11.291 10,10 0 0 1 11,1.5 10,10 0 0 1 20.9895,11.209 10,10 0 0 0 21,11 10,10 0 0 0 11,1 Z"/>
 <path d="M 7,10.5 A 4,3.7997427 0 0 0 3.1445312,13.303563 C 3.0537228,13.504202 3,13.738084 3,14.018988 c 0,0.04303 0.00678,0.08469 0.00781,0.127519 A 4,3.7997427 0 0 0 3,14.300282 4,3.7997427 0 0 0 3.2783203,15.691748 C 4.190038,18.458809 7.29707,20.5 11,20.5 c 3.724139,0 6.844828,-2.064808 7.736328,-4.856071 A 4,3.7997427 0 0 0 19,14.300282 4,3.7997427 0 0 0 18.993164,14.123066 C 18.993852,14.088068 19,14.054118 19,14.018988 19,13.746729 18.94881,13.519031 18.863281,13.322316 A 4,3.7997427 0 0 0 15,10.5 4,3.7997427 0 0 0 11.044922,13.761135 C 11.040727,13.76287 11,13.77895 11,13.77895 c 0,0 -0.04073,-0.01608 -0.04492,-0.01782 A 4,3.7997427 0 0 0 7,10.5 Z" style="opacity:0.2"/>
 <path style="fill:#ffffff" d="M 7,10 A 4,3.7997427 0 0 0 3.1445312,12.803563 C 3.0537228,13.004202 3,13.238084 3,13.518988 c 0,0.04303 0.00678,0.08469 0.00781,0.127519 A 4,3.7997427 0 0 0 3,13.800282 4,3.7997427 0 0 0 3.2783203,15.191748 C 4.190038,17.958809 7.29707,20 11,20 c 3.724139,0 6.844828,-2.064808 7.736328,-4.856071 A 4,3.7997427 0 0 0 19,13.800282 4,3.7997427 0 0 0 18.993164,13.623066 C 18.993852,13.588068 19,13.554118 19,13.518988 19,13.246729 18.94881,13.019031 18.863281,12.822316 A 4,3.7997427 0 0 0 15,10 4,3.7997427 0 0 0 11.044922,13.261135 C 11.040727,13.26287 11,13.27895 11,13.27895 c 0,0 -0.04073,-0.01608 -0.04492,-0.01782 A 4,3.7997427 0 0 0 7,10 Z"/>
 <circle style="fill:#3f3f3f" cx="8" cy="14" r="1"/>
 <circle cx="14" cy="14" r="1" style="fill:#3f3f3f"/>
 <path style="opacity:0.76700003;fill:#e31b1b" d="m 20.779291,31.72315 4,0 4,0 -2,3.464101 -2,3.464102 -2,-3.464102 z" transform="matrix(0.5,0,0,0.4330127,-1.3896456,2.2634732)"/>
</svg>
